X:612
T:Cherish the ladies
R:Jig
O:Ireland
P:Often played as 2 parts (A & B)
B:Roche 1 n88
B:O'Neill's 730
S:O'Neill's
Z:Transcription:mvhplank, Rearrangement, chords:Mike Long
M:6/8
L:1/8
K:D
(3(A/B/c/)|\
"D"dFF AFF|DFA AGF|"Em"BEE GEE|"G"GBA "A"GFE|\
"D"dFF AFF|DFA AFA|"G"Bcd "A"efg|"D"fdd d2:|
|:(3(A/B/c/)|\
"D"dfd "A"cec|"D"dfd AGF|"Em"BEE GEE|"G"GBA "A"GFE|\
"D"dfd "A"cec|"D"dfd AGF|"G"Bcd "A"efg|"D"fdd d2:|
|:A|\
"D"dfd "A"cec|"D"dfd AGF|"Em"BzE GzE|"G"GBA "A"GFE|\
"D"dFd "A"cEc|"D"dFd A2G|"G"A>Bc/d/ "A"efg|"D"fdd d2:|
B\
|:"D"Add fdd|add fdd|"A"Ace gfg|"G"ece "A"gfe|\
"D"agf "G"bge|"D"afd "A"cBA|"G"(3(fga) B AGF|"A"GEF GFE:|
|:"D"f2f afd|"D"fed "A"cde|"G"g2g gfg|"G"ece "A"gfe|\
"D"agf "G"bge|"D"afd "A"cBA|"G/D"fdB AGF|"A"GEF GFE:|
|:"D"DFA dAF|"D"DFA "G"BGE|"D"DFA dAF|"A"GEF GFE|\
"D"DFA "G"DGB|"D"DFA "A"d2e|"D"fdB AGF|"A"GEF GFE:|
